X: 508
P: Longways for as many as will
M: 6/4
L: 1/4
K: Dm
d2e fcA | GAF c2A |\
def efd | a3- a2 |][| a |\
bag a2e | gd2 g2a |\
efg fed | ^c3- c2B |\
eAf e2d | d3- d2 |]

